!!!!SEGMENT: pl-kc--40102-iii-1-saf--002-010_zielenski-mikolaj--communiones-totius-anni-dominica-post-pentecostes-amen-dico-vobis.krn
!!!cenid: 16xx:1541
!!!COM: Zieleński, Mikołaj
!!!COM-rismid: pe30013481
!!!CDT:
!!!CNT: Polish
!!!GTL: Communiones totius anni
!!!OTL: Dominica post Pentecostes/Amen dico vobis
!!!OMV: 010
!!!PDT: 1611
!!!AGN:
!!!SMS-siglum: PL-Kc
!!!SMS-shelfmark: 40102 III/1 Saf.
!!!SMS-shelfwork: 002-010 G
!!!SMS-variant:
!!!SMS-altvar:
!!!NIFC-rismid: 990069887
!!!URL-scan: https://cyfrowe.mnk.pl/dlibra/publication/24235/edition/23926/content?ref=desc
!!!ONB-nifc: UWAGA: str. 51. Uwaga: W xml metrum 2/1 do źródłowego C| i odpowiednio 3/1 do 3/2
!!!key: f:lid
**kern	**kern
*group1	*group1
*part2	*part1
*staff2	*staff1
*I""Organo	*
*Iorgan	*Iorgan
*ICklav	*ICklav
*clefF4	*clefC1
*k[b-]	*k[b-]
*F:	*F:
*M2/1	*M2/1
*met(C|)	*met(C|)
=1	=1
!LO:TX:t=P:problem:all/middle:global	!LO:TX:t=P:problem:all/middle:global
!LO:TX:t=P:problem:all\middle:global	!LO:TX:t=P:problem:all/middle:global
0r	1ryy
.	1.c
=2-	=2-
1.F	.
.	2B-/
.	2c/
!	!LO:N:vis=4
2D/	2A/
=3	=3
!	!LO:N:vis=4
2E-X\	2B-/
!	!LO:N:vis=4
2D/	2G/
1G	2B-/
!	!LO:N:vis=4
.	2G/
=4-	=4-
2F\	2A/
4Eny\	4G/
4D/	4F/
[y1C	2G/
.	4c/
.	4d/
=5	=5
!LO:N:vis=4:xstem:cue	!
2C]	4e/
.	4c/
2AA/	4f/
.	4e/
2BB-/	2d/
2AA/	2c/
=6-	=6-
0D	2.f/
.	4e/
.	4d/
.	4e/
.	4f/
.	4d/
=7	=7
1C	2f/
.	1cc
2c\	.
2d\	2a\
=8-	=8-
2G\	2b-\
2d\	2a\
1B-	1dd
=9	=9
2F\	4cc\
.	4b-\
1F	4a\
.	4g/
.	4f/
.	4e/
2D/	2f/
=10-	=10-
2E-X\	2g/
2D/	2f/
[y1G	[y1b-
=11	=11
!LO:N:vis=4:xstem:cue	!LO:N:vis=4:xstem:cue
2G]	2b-]
2G\	2b-\
2.F\	2a\
.	2b-\
4A\	.
=12-	=12-
2B-\	2cc\
2F\	2a\
2G\	2b-\
4A\	4cc\
4F\	4a\
!LO:SIC:v:t=custos c	!LO:SIC:v:t=custos g
!LO:LB:g=original	!LO:LB:g=original
=13	=13
2c\	2.g/
2C/	.
.	4g/
2D/	2f/
2AA/	2a\
=14-	=14-
2BB-/	4.g/
.	8f/
4C/	4e/
4FF/	4f/
2C/	2g/
4FF/	4.a\
4F\	.
.	8a\
=15	=15
!	!LO:N:acc=#
2G\	2bn\
2E\	2.cc\
2F\	.
.	2dd\
4G\	.
4C/	2cc\
=16-	=16-
2G\	.
!	!LO:N:acc=#
.	8bn\
.	8a\
2GG/	2b\
1C	4cc\
.	2cc\
.	4a\
=17	=17
2d\	4a\
.	2dd\
4B-\	.
4G\	4b-\
4.c\	4g/
.	2cc\
8B-\	.
4A\	.
4B-\	4b-\
=18-	=18-
4F\	1a
2F\	.
4D/	.
2.D/	4r
.	2f/
[<4BB-/	[<4dd\
=19	=19
4BB-/]	4dd\]
4GG/	4b-\
4GG/	2b-\
2G\	.
!	!LO:TX:t=P:problem:skreślona kropka wydłużająca półnutę
.	2g/
4E\	.
2.E\	4r
.	4g/
=20-	=20-
.	4g/
4C/	4cc\
4D/	2b-\
4E\	.
4F\	4a\
4G\	8g/
.	8f/
4A\	4e/
8AA/	4cc\
8AA/	.
=21	=21
4BB-/	4b-\
4C/	2a\
4D/	.
4E\	4g/
2F\	2.a\
2FF/	.
.	4a\
=22-	=22-
2C/	2g/
4FF/	4f/
4FF/	4a\
4GG/	4g/
4AA/	2f/
4BB-/	.
4C/	4e/
=23	=23
1D	1f
1C	2e/
.	2cc\
=24-	=24-
2F\	2a\
2B-\	4.f/
.	8f/
4A\	4cc\
4F\	4a\
2c\	2g/
=25	=25
2F\	2.a\
2F\	.
.	4f/
2D/	2f/
2BB-/	2b-\
=26-	=26-
4F\	4.a\
4FF/	.
.	8a\
2C/	4g/
.	4cc\
2F\	2a\
4.B-\	4.f/
8A\	8f/
=27	=27
4G\	4g/
4C/	4e/
2G\	2d/
2C/	2e/
2C/	2g/
=28-	=28-
2AA/	2cc\
2FF/	2a\
2C/	2g/
4FF/	4f/
4F\	4a\
=29	=29
2D/	2a\
2BB-/	1dd
2D/	.
2AA/	2cc\
=30-	=30-
0.BB-	4b-\
.	4f/
.	4b-\
.	4cc\
.	4dd\
.	4b-\
.	4dd\
.	4ee\
=31-	=31-
.	2ff\
.	2dd\
[1FFl	[1ccl
=32-	=32-
0FF/]	0cc\]
==	==
*-	*-
!!!system-decoration: g1
!!!RDF**kern: l = terminal long
!!!RDF**kern: > = above
!!!RDF**kern: < = below
!!!ENC: Andrzej Gręziak
!!!END: 2021-12-17
!!!EED: Jędrzej Mróz
!!!EST: 2021-12-23
